digital/Imbassy-X-Files/65ef0811cc67439994568a45/65ef0811cc6743999456909d_LogoTS.svg

<svg fill="none" height="70" viewBox="0 0 282 70" width="282" xmlns="http://www.w3.org/2000/svg"><g clip-rule="evenodd" fill="#fff" fill-rule="evenodd"><path d="m75.3975 37.5863c-2.2659 4.0081-4.9831 6.2618-10.8597 6.9122-6.4753.7237-11.8269-3.4859-13.9408-6.6283 2.6958.9488 5.5678 1.2992 8.4142 1.0261 5.278-.4809 8.2899-2.556 10.4499-5.9549.3269-.5085 1.2112-2.1025-.3362-2.6385-1.4185-.4901-2.7219-.5039-3.7351.9757-1.6442 2.414-3.5693 3.3393-7.599 3.7791-5.37.5726-11.8177-2.9637-12.5638-2.2262-1.3356 1.3192 2.9982 15.8217 18.97 15.6431 5.7522-.0642 9.7913-2.0155 13.5724-6.8711.9211-1.1773.6356-2.6064-.3731-3.9485-.6217-.8292-1.5059-.8887-1.9803-.0505"/><path d="m79.597 28.8876c2.1415-5.5518.0736-9.0469-.7185-8.882-.6447.142-1.8422 3.7928-3.5463 5.9183-5.7292-2.611-9.3261-.2382-9.2432 1.0215.0692 1.0489 4.7852.2931 9.211 4.1226 4.7022 4.0539 4.8404 8.4468 6.1852 8.4285 1.0776 0 3.3666-4.2738-1.8882-10.6089z"/><path d="m94.1433 29.3962h-5.7753v-3.4081h15.571v3.4081h-5.7705v15.4736h-4.0252z"/><path d="m105.738 29.3183h3.864v-3.3302h-3.864zm.055 15.5745h3.758v-13.8293h-3.758z"/><path d="m125.137 39.8676c-.073 1.4876-.694 2.8964-1.745 3.9577-1.013.9773-2.53 1.4658-4.55 1.4658-1.048.0179-2.088-.1688-3.063-.5496-.813-.3161-1.537-.8239-2.109-1.4796-.565-.6694-.981-1.4499-1.221-2.2904-.276-.9713-.411-1.9771-.4-2.9865-.015-1.0202.141-2.0355.46-3.005.286-.8598.747-1.6519 1.354-2.3271.605-.6514 1.347-1.1615 2.174-1.4932 1.751-.6378 3.662-.694 5.448-.1604.654.2098 1.26.5461 1.783.9895.482.4196.867.9385 1.128 1.5207.277.6168.458 1.2716.539 1.9423l-3.786.5039c-.056-.6113-.268-1.198-.617-1.7041-.205-.2337-.463-.4149-.754-.5281-.29-.1132-.603-.1552-.913-.1224-.499-.0186-.993.1054-1.423.3574-.377.2414-.686.574-.898.9665-.229.4298-.384.8941-.461 1.3743-.09.5374-.134 1.0813-.134 1.626-.001.5586.044 1.1162.134 1.6675.081.4878.236.9606.461 1.4016.206.3928.512.7246.888.962.43.2532.924.3773 1.424.3573.318.0203.637-.0254.937-.1343.299-.1087.573-.2783.803-.4979.449-.5084.706-1.156.728-1.8323z"/><path d="m127.431 25.9881h3.68v9.8898l5.393-4.8144h4.352l-5.103 4.7594 5.503 9.0469h-4.052l-4.136-6.9856-1.957 1.7453v5.2403h-3.68z"/><path d="m154.568 40.559c-.152 1.3738-.83 2.6366-1.893 3.5273-1.007.8031-2.477 1.2046-4.412 1.2046-2.33 0-4.08-.6351-5.25-1.9055s-1.756-3.0676-1.759-5.3915c-.018-1.0588.156-2.1122.511-3.1103.316-.8535.805-1.6331 1.437-2.2903.616-.6427 1.365-1.1431 2.197-1.4659.911-.3339 1.875-.4985 2.846-.4856 2.149 0 3.764.6108 4.845 1.8323 1.082 1.2185 1.626 2.8538 1.626 4.9197v1.4796h-9.704c-.022.9363.276 1.8524.847 2.5972.309.3217.685.5709 1.103.7294.417.1585.865.2223 1.311.1867 1.487 0 2.362-.6184 2.634-1.8321zm-3.463-4.1226c.055-.8058-.199-1.6025-.709-2.2308-.293-.2842-.644-.5019-1.03-.6379s-.796-.1872-1.204-.15c-.451-.0101-.899.071-1.317.2382-.359.1484-.683.3682-.953.6459-.261.2766-.465.5999-.604.9529-.145.3764-.226.7743-.239 1.1771z"/><path d="m158.035 33.9446h-2.202v-2.8813h2.202v-3.6645h3.758v3.6645h3.224v2.8813h-3.224v6.3763c0 .7192.152 1.2093.46 1.4659.333.2668.752.4036 1.179.3848.256-.0002.511-.014.765-.0413.259-.0253.515-.0745.764-.1466l.539 2.7485c-.494.1545-1.001.2648-1.515.3297-.469.0612-.941.0917-1.414.0917-1.538 0-2.676-.3619-3.422-1.081-.746-.7193-1.114-1.9423-1.114-3.6646z"/><path d="m171.725 38.704c.092 1.1635.46 2.0108 1.142 2.5422.681.5314 1.663.7925 2.966.7925.534.0105 1.068-.0558 1.584-.1969.381-.1093.737-.2896 1.05-.5314.255-.2068.453-.4748.575-.7788.118-.3134.178-.6456.175-.9802-.011-.5119-.213-1.0014-.567-1.3742-.37-.4307-1.059-.736-2.067-.9162l-2.497-.4581c-.886-.1486-1.757-.3785-2.601-.6871-.693-.2498-1.333-.6224-1.893-1.0993-.515-.4619-.914-1.0378-1.165-1.6812-.284-.7425-.42-1.5328-.401-2.327-.016-.8251.173-1.6415.548-2.3773.367-.6855.893-1.2743 1.534-1.7178.714-.485 1.509-.8387 2.348-1.0444.984-.247 1.994-.3671 3.009-.3573 1.178-.0383 2.357.1165 3.485.4581.831.2587 1.6.686 2.257 1.2551.558.4983.995 1.1173 1.276 1.8094.276.6878.462 1.4084.553 2.1437l-3.786.4581c-.113-.8486-.52-1.6313-1.151-2.2125-.567-.458-1.42-.6871-2.566-.6871-.564-.011-1.127.0459-1.676.1695-.377.0913-.736.2462-1.06.4581-.247.1558-.445.3803-.566.6459-.106.2415-.161.5017-.161.7649-.023.2945.02.5904.125.8666.105.2763.27.5262.483.7321.606.4388 1.311.7206 2.054.8199l2.634.504c2.072.403 3.594 1.0596 4.564 1.9696.97.9101 1.453 2.2186 1.447 3.9256.011.7874-.145 1.5684-.461 2.2905-.317.7062-.789 1.3326-1.382 1.8323-.679.5526-1.462.9652-2.303 1.2138-1.061.3178-2.166.4722-3.275.4581-2.615 0-4.611-.5497-5.987-1.649-1.375-1.0995-2.122-2.7623-2.242-4.9885z"/><path d="m185.53 31.0633h3.648v1.8324c.483-.7133 1.141-1.2932 1.91-1.6857.77-.3924 1.627-.5847 2.491-.5589 1.954 0 3.413.652 4.381 1.956.967 1.3039 1.449 3.0934 1.445 5.3685.013 1.0106-.127 2.0171-.414 2.9867-.246.842-.657 1.6278-1.206 2.3132-.521.627-1.177 1.1283-1.921 1.4658-.802.3743-1.679.5623-2.566.5497-.71-.0025-1.414-.1281-2.081-.3711-.771-.3083-1.443-.8198-1.943-1.4794v6.5595h-3.758zm3.73 7.0085c-.02.7244.056 1.4483.226 2.153.126.494.382.9461.741 1.31.306.2922.68.5059 1.086.623.365.0969.739.1461 1.115.1466.406-.0002.807-.0812 1.18-.2382.384-.1663.723-.4262.98-.7558.305-.3977.528-.8504.659-1.3331.172-.6466.253-1.3143.24-1.9833.015-.6864-.061-1.3719-.226-2.0384-.123-.4818-.337-.9358-.631-1.3376-.247-.325-.576-.5793-.953-.7375-.371-.1513-.769-.2275-1.17-.2245-.41-.0092-.819.0528-1.207.1832-.362.1375-.698.3341-.995.5818-.367.3499-.639.7863-.792 1.2689-.187.6364-.272 1.2979-.253 1.9605z"/><path d="m201.852 29.3183h3.883v-3.3302h-3.865zm.05 15.5745h3.763v-13.8293h-3.763z"/><path d="m221.233 39.8675c-.067 1.4863-.684 2.8955-1.731 3.9577-1.014.9773-2.532 1.4658-4.556 1.4658-1.046.0179-2.084-.1689-3.058-.5496-.813-.3161-1.537-.8238-2.108-1.4796-.565-.6694-.982-1.4499-1.221-2.2903-.277-.9713-.412-1.9772-.401-2.9866-.015-1.0202.141-2.0355.461-3.005.285-.8598.746-1.6519 1.354-2.327.614-.6521 1.368-1.1592 2.206-1.4841 1.74-.6337 3.639-.6931 5.415-.1695.654.2087 1.261.5451 1.783.9894.483.4196.868.9385 1.128 1.5208.275.6176.456 1.272.54 1.9422l-3.8.5039c-.056-.6112-.269-1.198-.617-1.704-.206-.2337-.464-.4149-.754-.5282-.291-.1132-.604-.1552-.914-.1223-.499-.0186-.992.1053-1.423.3573-.384.2384-.703.5713-.921.9666-.23.4289-.386.8935-.461 1.3741-.088.5375-.133 1.0814-.133 1.6262-.002.5585.043 1.1162.133 1.6674.079.4883.235.9613.461 1.4016.206.3928.513.7247.889.962.428.2526.921.3767 1.419.3573.318.021.639-.0244.939-.1332.301-.1089.575-.2787.806-.4989.448-.5084.706-1.1561.728-1.8323z"/><path d="m235.838 40.5594c-.156 1.3725-.833 2.6337-1.893 3.5272-1.012.8031-2.485 1.2046-4.416 1.2046-2.325 0-4.075-.6351-5.251-1.9055s-1.761-3.0675-1.759-5.3915c-.017-1.0588.156-2.1121.512-3.1103.316-.8535.804-1.6331 1.437-2.2903.623-.6366 1.379-1.1292 2.214-1.443.912-.3331 1.877-.4977 2.847-.4855 2.149 0 3.765.6107 4.844 1.8322 1.083 1.2186 1.627 2.8538 1.627 4.9198v1.4794h-9.722c-.021.9412.283 1.8609.86 2.6066.31.3216.688.5709 1.106.7293.418.1585.866.2224 1.312.1867 1.483 0 2.363-.6183 2.63-1.8322zm-3.463-4.1227c.053-.8064-.201-1.6032-.714-2.2308-.29-.2826-.638-.4997-1.02-.6364-.383-.1367-.79-.1899-1.195-.1561-.449-.0101-.896.071-1.313.2382-.36.1463-.684.3663-.953.6459-.261.2766-.465.6-.604.9528-.148.3757-.231.7739-.243 1.1773z"/></g></svg>

<svg width="282" height="70" viewBox="0 0 282 70" fill="none" xmlns="http://www.w3.org/2000/svg">
<path fill-rule="evenodd" clip-rule="evenodd" d="M75.3975 37.5863C73.1316 41.5944 70.4144 43.8481 64.5378 44.4985C58.0625 45.2222 52.7109 41.0126 50.597 37.8702C53.2928 38.819 56.1648 39.1694 59.0112 38.8963C64.2892 38.4154 67.3011 36.3403 69.4611 32.9414C69.788 32.4329 70.6723 30.8389 69.1249 30.3029C67.7064 29.8128 66.403 29.799 65.3898 31.2786C63.7456 33.6926 61.8205 34.6179 57.7908 35.0577C52.4208 35.6303 45.9731 32.094 45.227 32.8315C43.8914 34.1507 48.2252 48.6532 64.197 48.4746C69.9492 48.4104 73.9883 46.4591 77.7694 41.6035C78.6905 40.4262 78.405 38.9971 77.3963 37.655C76.7746 36.8258 75.8904 36.7663 75.416 37.6045" fill="white"/>
<path fill-rule="evenodd" clip-rule="evenodd" d="M79.597 28.8876C81.7385 23.3358 79.6706 19.8407 78.8785 20.0056C78.2338 20.1476 77.0363 23.7984 75.3322 25.9239C69.603 23.3129 66.0061 25.6857 66.089 26.9454C66.1582 27.9943 70.8742 27.2385 75.3 31.068C80.0022 35.1219 80.1404 39.5148 81.4852 39.4965C82.5628 39.4965 84.8518 35.2227 79.597 28.8876Z" fill="white"/>
<path fill-rule="evenodd" clip-rule="evenodd" d="M94.1433 29.3962H88.368V25.9881H103.939V29.3962H98.1685V44.8698H94.1433V29.3962Z" fill="white"/>
<path fill-rule="evenodd" clip-rule="evenodd" d="M105.738 29.3183H109.602V25.9881H105.738V29.3183ZM105.793 44.8928H109.551V31.0635H105.793V44.8928Z" fill="white"/>
<path fill-rule="evenodd" clip-rule="evenodd" d="M125.137 39.8676C125.064 41.3552 124.443 42.764 123.392 43.8253C122.379 44.8026 120.862 45.2911 118.842 45.2911C117.794 45.309 116.754 45.1223 115.779 44.7415C114.966 44.4254 114.242 43.9176 113.67 43.2619C113.105 42.5925 112.689 41.812 112.449 40.9715C112.173 40.0002 112.038 38.9944 112.049 37.985C112.034 36.9648 112.19 35.9495 112.509 34.98C112.795 34.1202 113.256 33.3281 113.863 32.6529C114.468 32.0015 115.21 31.4914 116.037 31.1597C117.788 30.5219 119.699 30.4657 121.485 30.9993C122.139 31.2091 122.745 31.5454 123.268 31.9888C123.75 32.4084 124.135 32.9273 124.396 33.5095C124.673 34.1263 124.854 34.7811 124.935 35.4518L121.149 35.9557C121.093 35.3444 120.881 34.7577 120.532 34.2516C120.327 34.0179 120.069 33.8367 119.778 33.7235C119.488 33.6103 119.175 33.5683 118.865 33.6011C118.366 33.5825 117.872 33.7065 117.442 33.9585C117.065 34.1999 116.756 34.5325 116.544 34.925C116.315 35.3548 116.16 35.8191 116.083 36.2993C115.993 36.8367 115.949 37.3806 115.949 37.9253C115.948 38.4839 115.993 39.0415 116.083 39.5928C116.164 40.0806 116.319 40.5534 116.544 40.9944C116.75 41.3872 117.056 41.719 117.432 41.9564C117.862 42.2096 118.356 42.3337 118.856 42.3137C119.174 42.334 119.493 42.2883 119.793 42.1794C120.092 42.0707 120.366 41.9011 120.596 41.6815C121.045 41.1731 121.302 40.5255 121.324 39.8492L125.137 39.8676Z" fill="white"/>
<path fill-rule="evenodd" clip-rule="evenodd" d="M127.431 25.9881H131.111V35.8779L136.504 31.0635H140.856L135.753 35.8229L141.256 44.8698H137.204L133.068 37.8842L131.111 39.6295V44.8698H127.431V25.9881Z" fill="white"/>
<path fill-rule="evenodd" clip-rule="evenodd" d="M154.568 40.559C154.416 41.9328 153.738 43.1956 152.675 44.0863C151.668 44.8894 150.198 45.2909 148.263 45.2909C145.933 45.2909 144.183 44.6558 143.013 43.3854C141.843 42.115 141.257 40.3178 141.254 37.9939C141.236 36.9351 141.41 35.8817 141.765 34.8836C142.081 34.0301 142.57 33.2505 143.202 32.5933C143.818 31.9506 144.567 31.4502 145.399 31.1274C146.31 30.7935 147.274 30.6289 148.245 30.6418C150.394 30.6418 152.009 31.2526 153.09 32.4741C154.172 33.6926 154.716 35.3279 154.716 37.3938V38.8734H145.012C144.99 39.8097 145.288 40.7258 145.859 41.4706C146.168 41.7923 146.544 42.0415 146.962 42.2C147.379 42.3585 147.827 42.4223 148.273 42.3867C149.76 42.3867 150.635 41.7683 150.907 40.5546L154.568 40.559ZM151.105 36.4364C151.16 35.6306 150.906 34.8339 150.396 34.2056C150.103 33.9214 149.752 33.7037 149.366 33.5677C148.98 33.4317 148.57 33.3805 148.162 33.4177C147.711 33.4076 147.263 33.4887 146.845 33.6559C146.486 33.8043 146.162 34.0241 145.892 34.3018C145.631 34.5784 145.427 34.9017 145.288 35.2547C145.143 35.6311 145.062 36.029 145.049 36.4318L151.105 36.4364Z" fill="white"/>
<path fill-rule="evenodd" clip-rule="evenodd" d="M158.035 33.9446H155.833V31.0633H158.035V27.3988H161.793V31.0633H165.017V33.9446H161.793V40.3209C161.793 41.0401 161.945 41.5302 162.253 41.7868C162.586 42.0536 163.005 42.1904 163.432 42.1716C163.688 42.1714 163.943 42.1576 164.197 42.1303C164.456 42.105 164.712 42.0558 164.961 41.9837L165.5 44.7322C165.006 44.8867 164.499 44.997 163.985 45.0619C163.516 45.1231 163.044 45.1536 162.571 45.1536C161.033 45.1536 159.895 44.7917 159.149 44.0726C158.403 43.3533 158.035 42.1303 158.035 40.408V33.9446Z" fill="white"/>
<path fill-rule="evenodd" clip-rule="evenodd" d="M171.725 38.704C171.817 39.8675 172.185 40.7148 172.867 41.2462C173.548 41.7776 174.53 42.0387 175.833 42.0387C176.367 42.0492 176.901 41.9829 177.417 41.8418C177.798 41.7325 178.154 41.5522 178.467 41.3104C178.722 41.1036 178.92 40.8356 179.042 40.5316C179.16 40.2182 179.22 39.886 179.217 39.5514C179.206 39.0395 179.004 38.55 178.65 38.1772C178.28 37.7465 177.591 37.4412 176.583 37.261L174.086 36.8029C173.2 36.6543 172.329 36.4244 171.485 36.1158C170.792 35.866 170.152 35.4934 169.592 35.0165C169.077 34.5546 168.678 33.9787 168.427 33.3353C168.143 32.5928 168.007 31.8025 168.026 31.0083C168.01 30.1832 168.199 29.3668 168.574 28.631C168.941 27.9455 169.467 27.3567 170.108 26.9132C170.822 26.4282 171.617 26.0745 172.456 25.8688C173.44 25.6218 174.45 25.5017 175.465 25.5115C176.643 25.4732 177.822 25.628 178.95 25.9696C179.781 26.2283 180.55 26.6556 181.207 27.2247C181.765 27.723 182.202 28.342 182.483 29.0341C182.759 29.7219 182.945 30.4425 183.036 31.1778L179.25 31.6359C179.137 30.7873 178.73 30.0046 178.099 29.4234C177.532 28.9654 176.679 28.7363 175.533 28.7363C174.969 28.7253 174.406 28.7822 173.857 28.9058C173.48 28.9971 173.121 29.152 172.797 29.3639C172.55 29.5197 172.352 29.7442 172.231 30.0098C172.125 30.2513 172.07 30.5115 172.07 30.7747C172.047 31.0692 172.09 31.3651 172.195 31.6413C172.3 31.9176 172.465 32.1675 172.678 32.3734C173.284 32.8122 173.989 33.094 174.732 33.1933L177.366 33.6973C179.438 34.1003 180.96 34.7569 181.93 35.6669C182.9 36.577 183.383 37.8855 183.377 39.5925C183.388 40.3799 183.232 41.1609 182.916 41.883C182.599 42.5892 182.127 43.2156 181.534 43.7153C180.855 44.2679 180.072 44.6805 179.231 44.9291C178.17 45.2469 177.065 45.4013 175.956 45.3872C173.341 45.3872 171.345 44.8375 169.969 43.7382C168.594 42.6387 167.847 40.9759 167.727 38.7497L171.725 38.704Z" fill="white"/>
<path fill-rule="evenodd" clip-rule="evenodd" d="M185.53 31.0633H189.178V32.8957C189.661 32.1824 190.319 31.6025 191.088 31.21C191.858 30.8176 192.715 30.6253 193.579 30.6511C195.533 30.6511 196.992 31.3031 197.96 32.6071C198.927 33.911 199.409 35.7005 199.405 37.9756C199.418 38.9862 199.278 39.9927 198.991 40.9623C198.745 41.8043 198.334 42.5901 197.785 43.2755C197.264 43.9025 196.608 44.4038 195.864 44.7413C195.062 45.1156 194.185 45.3036 193.298 45.291C192.588 45.2885 191.884 45.1629 191.217 44.9199C190.446 44.6116 189.774 44.1001 189.274 43.4405V50H185.516L185.53 31.0633ZM189.26 38.0718C189.24 38.7962 189.316 39.5201 189.486 40.2248C189.612 40.7188 189.868 41.1709 190.227 41.5348C190.533 41.827 190.907 42.0407 191.313 42.1578C191.678 42.2547 192.052 42.3039 192.428 42.3044C192.834 42.3042 193.235 42.2232 193.608 42.0662C193.992 41.8999 194.331 41.64 194.588 41.3104C194.893 40.9127 195.116 40.46 195.247 39.9773C195.419 39.3307 195.5 38.663 195.487 37.994C195.502 37.3076 195.426 36.6221 195.261 35.9556C195.138 35.4738 194.924 35.0198 194.63 34.618C194.383 34.293 194.054 34.0387 193.677 33.8805C193.306 33.7292 192.908 33.653 192.507 33.656C192.097 33.6468 191.688 33.7088 191.3 33.8392C190.938 33.9767 190.602 34.1733 190.305 34.421C189.938 34.7709 189.666 35.2073 189.513 35.6899C189.326 36.3263 189.241 36.9878 189.26 37.6504V38.0718Z" fill="white"/>
<path fill-rule="evenodd" clip-rule="evenodd" d="M201.852 29.3183H205.735V25.9881H201.87L201.852 29.3183ZM201.902 44.8928H205.665V31.0635H201.902V44.8928Z" fill="white"/>
<path fill-rule="evenodd" clip-rule="evenodd" d="M221.233 39.8675C221.166 41.3538 220.549 42.763 219.502 43.8252C218.488 44.8025 216.97 45.291 214.946 45.291C213.9 45.3089 212.862 45.1221 211.888 44.7414C211.075 44.4253 210.351 43.9176 209.78 43.2618C209.215 42.5924 208.798 41.8119 208.559 40.9715C208.282 40.0002 208.147 38.9943 208.158 37.9849C208.143 36.9647 208.299 35.9494 208.619 34.9799C208.904 34.1201 209.365 33.328 209.973 32.6529C210.587 32.0008 211.341 31.4937 212.179 31.1688C213.919 30.5351 215.818 30.4757 217.594 30.9993C218.248 31.208 218.855 31.5444 219.377 31.9887C219.86 32.4083 220.245 32.9272 220.505 33.5095C220.78 34.1271 220.961 34.7815 221.045 35.4517L217.245 35.9556C217.189 35.3444 216.976 34.7576 216.628 34.2516C216.422 34.0179 216.164 33.8367 215.874 33.7234C215.583 33.6102 215.27 33.5682 214.96 33.6011C214.461 33.5825 213.968 33.7064 213.537 33.9584C213.153 34.1968 212.834 34.5297 212.616 34.925C212.386 35.3539 212.23 35.8185 212.155 36.2991C212.067 36.8366 212.022 37.3805 212.022 37.9253C212.02 38.4838 212.065 39.0415 212.155 39.5927C212.234 40.081 212.39 40.554 212.616 40.9943C212.822 41.3871 213.129 41.719 213.505 41.9563C213.933 42.2089 214.426 42.333 214.924 42.3136C215.242 42.3346 215.563 42.2892 215.863 42.1804C216.164 42.0715 216.438 41.9017 216.669 41.6815C217.117 41.1731 217.375 40.5254 217.397 39.8492L221.233 39.8675Z" fill="white"/>
<path fill-rule="evenodd" clip-rule="evenodd" d="M235.838 40.5594C235.682 41.9319 235.005 43.1931 233.945 44.0866C232.933 44.8897 231.46 45.2912 229.529 45.2912C227.204 45.2912 225.454 44.6561 224.278 43.3857C223.102 42.1153 222.517 40.3182 222.519 37.9942C222.502 36.9354 222.675 35.8821 223.031 34.8839C223.347 34.0304 223.835 33.2508 224.468 32.5936C225.091 31.957 225.847 31.4644 226.682 31.1506C227.594 30.8175 228.559 30.6529 229.529 30.6651C231.678 30.6651 233.294 31.2758 234.373 32.4973C235.456 33.7159 236 35.3511 236 37.4171V38.8965H226.278C226.257 39.8377 226.561 40.7574 227.138 41.5031C227.448 41.8247 227.826 42.074 228.244 42.2324C228.662 42.3909 229.11 42.4548 229.556 42.4191C231.039 42.4191 231.919 41.8008 232.186 40.5869L235.838 40.5594ZM232.375 36.4367C232.428 35.6303 232.174 34.8335 231.661 34.2059C231.371 33.9233 231.023 33.7062 230.641 33.5695C230.258 33.4328 229.851 33.3796 229.446 33.4134C228.997 33.4033 228.55 33.4844 228.133 33.6516C227.773 33.7979 227.449 34.0179 227.18 34.2975C226.919 34.5741 226.715 34.8975 226.576 35.2503C226.428 35.626 226.345 36.0242 226.333 36.4276L232.375 36.4367Z" fill="white"/>
</svg>
